Logo.svg

<?xml version="1.0" standalone="no"?>
<!DOCTYPE svg PUBLIC "-//W3C//DTD SVG 20010904//EN"
 "http://www.w3.org/TR/2001/REC-SVG-20010904/DTD/svg10.dtd">
<svg version="1.0" xmlns="http://www.w3.org/2000/svg"
 width="1024.000000pt" height="1024.000000pt" viewBox="0 0 1024.000000 1024.000000"
 preserveAspectRatio="xMidYMid meet">
<metadata>
Created by potrace 1.16, written by Peter Selinger 2001-2019
</metadata>
<g transform="translate(0.000000,1024.000000) scale(0.100000,-0.100000)"
fill="#000000" stroke="none">
<path d="M0 5120 l0 -5120 5120 0 5120 0 0 5120 0 5120 -5120 0 -5120 0 0
-5120z m5115 3636 c220 -223 361 -488 421 -791 27 -137 25 -397 -5 -535 -76
-355 -202 -576 -588 -1027 -346 -404 -501 -618 -609 -838 -115 -234 -161 -415
-171 -665 -15 -381 58 -638 305 -1081 187 -337 271 -537 343 -823 16 -65 28
-120 26 -123 -3 -2 -22 24 -43 59 -91 153 -241 348 -489 638 -265 309 -393
487 -490 681 -223 443 -257 966 -95 1459 97 298 241 547 613 1070 492 689 654
1029 698 1460 21 206 -12 474 -78 647 -12 31 56 -24 162 -131z m1030 -1401
c322 -99 728 -253 990 -373 l110 -51 6 -58 c4 -32 14 -155 23 -273 58 -769 60
-1294 5 -1785 -76 -688 -277 -1147 -722 -1652 -266 -302 -781 -737 -1305
-1103 l-134 -93 -91 63 c-240 165 -646 479 -887 686 -163 139 -451 430 -554
559 -205 257 -393 583 -480 831 -166 470 -223 1119 -175 1994 10 184 53 679
67 775 l7 50 115 51 c187 85 472 197 675 267 213 73 518 161 537 155 7 -3 -69
-49 -168 -103 -356 -195 -834 -474 -872 -509 -38 -34 -43 -51 -58 -205 -63
-667 -70 -1344 -18 -1791 64 -553 252 -982 617 -1408 259 -302 684 -673 1147
-1002 41 -29 89 -64 106 -77 l31 -23 139 101 c666 484 1117 910 1375 1298 126
190 242 442 302 661 115 411 149 990 106 1790 -12 239 -38 599 -44 626 -8 35
-307 226 -805 514 -107 62 -204 120 -215 127 l-20 15 20 -6 c11 -3 88 -26 170
-51z m-215 -549 c35 -158 83 -284 210 -546 66 -135 136 -295 156 -357 21 -62
40 -110 44 -108 4 2 10 60 14 127 4 68 15 170 24 228 l18 105 17 -50 c34 -100
96 -363 120 -510 106 -632 21 -1125 -270 -1565 -88 -133 -185 -256 -387 -493
-88 -104 -193 -230 -234 -280 -169 -211 -304 -451 -376 -667 l-35 -105 -1 142
c-1 310 67 597 214 908 29 61 109 211 178 335 152 272 186 340 243 478 112
276 149 557 110 841 -26 181 -74 333 -193 606 -80 182 -95 246 -95 385 2 221
52 471 155 765 l53 150 7 -145 c4 -87 15 -185 28 -244z"/>
</g>
</svg>

<?xml version="1.0" encoding="UTF-8" standalone="no"?>
<!DOCTYPE svg PUBLIC "-//W3C//DTD SVG 1.1//EN" "http://www.w3.org/Graphics/SVG/1.1/DTD/svg11.dtd">
<svg width="100%" height="100%" viewBox="0 0 1024 1024" version="1.1" xmlns="http://www.w3.org/2000/svg" xmlns:xlink="http://www.w3.org/1999/xlink" xml:space="preserve" xmlns:serif="http://www.serif.com/" style="fill-rule:evenodd;clip-rule:evenodd;stroke-linejoin:round;stroke-miterlimit:2;">
    <g transform="matrix(1.25138,0,0,1.30172,-119.682,-148.234)">
        <rect x="95.64" y="113.875" width="818.296" height="786.649" style="fill:rgb(235,235,235);"/>
    </g>
    <g transform="matrix(0.1,0,0,-0.1,4.26326e-14,1024)">
        <path d="M0,10240L0,0L10240,0L10240,10240L0,10240ZM5115,8756C5335,8533 5476,8268 5536,7965C5563,7828 5561,7568 5531,7430C5455,7075 5329,6854 4943,6403C4597,5999 4442,5785 4334,5565C4219,5331 4173,5150 4163,4900C4148,4519 4221,4262 4468,3819C4655,3482 4739,3282 4811,2996C4827,2931 4839,2876 4837,2873C4834,2871 4815,2897 4794,2932C4703,3085 4553,3280 4305,3570C4040,3879 3912,4057 3815,4251C3592,4694 3558,5217 3720,5710C3817,6008 3961,6257 4333,6780C4825,7469 4987,7809 5031,8240C5052,8446 5019,8714 4953,8887C4941,8918 5009,8863 5115,8756ZM6145,7355C6467,7256 6873,7102 7135,6982L7245,6931L7251,6873C7255,6841 7265,6718 7274,6600C7332,5831 7334,5306 7279,4815C7203,4127 7002,3668 6557,3163C6291,2861 5776,2426 5252,2060L5118,1967L5027,2030C4787,2195 4381,2509 4140,2716C3977,2855 3689,3146 3586,3275C3381,3532 3193,3858 3106,4106C2940,4576 2883,5225 2931,6100C2941,6284 2984,6779 2998,6875L3005,6925L3120,6976C3307,7061 3592,7173 3795,7243C4008,7316 4313,7404 4332,7398C4339,7395 4263,7349 4164,7295C3808,7100 3330,6821 3292,6786C3254,6752 3249,6735 3234,6581C3171,5914 3164,5237 3216,4790C3280,4237 3468,3808 3833,3382C4092,3080 4517,2709 4980,2380C5021,2351 5069,2316 5086,2303L5117,2280L5256,2381C5922,2865 6373,3291 6631,3679C6757,3869 6873,4121 6933,4340C7048,4751 7082,5330 7039,6130C7027,6369 7001,6729 6995,6756C6987,6791 6688,6982 6190,7270C6083,7332 5986,7390 5975,7397L5955,7412L5975,7406C5986,7403 6063,7380 6145,7355ZM5930,6806C5965,6648 6013,6522 6140,6260C6206,6125 6276,5965 6296,5903C6317,5841 6336,5793 6340,5795C6344,5797 6350,5855 6354,5922C6358,5990 6369,6092 6378,6150L6396,6255L6413,6205C6447,6105 6509,5842 6533,5695C6639,5063 6554,4570 6263,4130C6175,3997 6078,3874 5876,3637C5788,3533 5683,3407 5642,3357C5473,3146 5338,2906 5266,2690L5231,2585L5230,2727C5229,3037 5297,3324 5444,3635C5473,3696 5553,3846 5622,3970C5774,4242 5808,4310 5865,4448C5977,4724 6014,5005 5975,5289C5949,5470 5901,5622 5782,5895C5702,6077 5687,6141 5687,6280C5689,6501 5739,6751 5842,7045L5895,7195L5902,7050C5906,6963 5917,6865 5930,6806Z" style="fill-rule:nonzero;"/>
    </g>
</svg>
